dist/chromeapp/fonts/linecons.svg

<?xml version="1.0" standalone="no"?>
<!DOCTYPE svg PUBLIC "-//W3C//DTD SVG 1.1//EN" "http://www.w3.org/Graphics/SVG/1.1/DTD/svg11.dtd" >
<svg xmlns="http://www.w3.org/2000/svg">
<metadata>Generated by IcoMoon</metadata>
<defs>
<font id="linecons" horiz-adv-x="1024">
<font-face units-per-em="1024" ascent="960" descent="-64" />
<missing-glyph horiz-adv-x="1024" />
<glyph unicode="&#x20;" d="" horiz-adv-x="512" />
<glyph unicode="&#xe600;" d="M1021.568 369.44l-128.064 480.192c-7.744 27.296-33.056 46.368-61.504 46.368h-320-320c-28.48 0-53.76-19.072-61.504-46.368l-128.064-480.192c-1.632-5.824-2.432-11.68-2.432-17.44v-224c0-70.688 57.312-128 128-128h768c70.688 0 128 57.312 128 128v224c0 5.76-0.8 11.616-2.432 17.44zM960 128c0-35.264-28.736-64-64-64h-768c-35.296 0-64 28.736-64 64v224l128.032 480.032h639.904l128.064-480.032v-224zM759.744 768h-495.488c-14.496 0-27.2-9.76-30.944-23.776l-110.24-384c-2.528-9.632-0.512-19.872 5.568-27.744s15.424-12.48 25.344-12.48h92.992 53.184l46.304-92.64c10.88-21.664 33.024-35.36 57.28-35.36h216.512c24.256 0 46.368 13.696 57.248 35.36l46.304 92.64h146.176c9.952 0 19.328 4.64 25.376 12.512s8.064 18.112 5.568 27.744l-110.24 384c-3.744 14.016-16.448 23.744-30.944 23.744zM776.992 384h-53.184c-24.384 0-46.304-13.504-57.248-35.36l-46.304-92.64h-216.512l-46.304 92.64c-10.944 21.856-32.864 35.36-57.248 35.36h-53.184-76.32l93.568 352h495.488l93.568-352h-76.32z" />
<glyph unicode="&#xe601;" d="M1022.88 455.168c-0.32 1.344-0.128 2.784-0.64 4.096-0.192 0.544-0.672 0.832-0.864 1.344-0.32 0.768-0.256 1.632-0.672 2.368-92.8 177.632-294.816 304.896-507.936 304.896-213.152 0-415.136-127.072-508-304.672-0.416-0.736-0.352-1.6-0.672-2.368-0.224-0.512-0.672-0.8-0.864-1.344-0.512-1.312-0.32-2.752-0.64-4.096-0.576-2.4-1.12-4.704-1.12-7.168s0.576-4.736 1.12-7.168c0.32-1.344 0.128-2.784 0.64-4.096 0.192-0.544 0.672-0.832 0.864-1.344 0.32-0.768 0.256-1.632 0.672-2.368 92.832-177.632 294.848-304.896 508-304.896 213.12 0 415.136 127.072 507.936 304.672 0.448 0.736 0.384 1.6 0.672 2.368 0.192 0.512 0.672 0.8 0.864 1.344 0.512 1.312 0.32 2.752 0.64 4.096 0.544 2.432 1.12 4.736 1.12 7.168s-0.576 4.768-1.12 7.168zM512.736 192.384c-179.68 0-355.584 102.112-443.232 255.84 88.128 153.92 263.776 255.68 443.232 255.68 179.616 0 355.552-102.144 443.2-255.84-88.128-153.952-263.744-255.68-443.2-255.68zM512.736 576.032c8.832 0 15.936-7.136 15.936-16 0-8.8-7.136-15.968-15.936-15.968v-0.032c-52.928 0-95.968-43.040-95.968-95.904 0-8.832-7.168-16-15.968-16-8.832 0-16 7.168-16 16 0 70.56 57.184 127.744 127.744 127.872 0.064 0 0.128 0.032 0.192 0.032zM512 672c-123.744 0-224-100.288-224-224s100.288-224 224-224c123.68 0 224 100.32 224 224 0 123.744-100.32 224-224 224zM512 256c-105.888 0-192 86.112-192 192s86.112 192 192 192c105.888 0 192-86.112 192-192 0-105.888-86.112-192-192-192z" />
<glyph unicode="&#xe602;" d="M864 800.128l-704-0.128c-17.696 0-32-14.176-32-31.872v-448c0-17.696 14.304-32 32-32h704c17.696 0 32 14.304 32 32v448c0 17.696-14.304 32-32 32zM864 320h-704v448.128h704v-448.128zM928 928h-832c-53.024 0-96-42.944-96-96v-640c0-52.928 42.816-95.808 95.68-95.936h320.32v-38.944l-199.744-25.952c-14.272-3.552-24.256-16.352-24.256-31.040 0-17.696 14.304-32 32-32h576c17.696 0 32 14.304 32 32 0 14.688-9.984 27.488-24.256 31.072l-199.744 25.92v38.944h320.32c52.864 0.128 95.68 43.008 95.68 95.936v640c0 53.056-43.008 96-96 96zM960 192c0-17.632-14.368-32-32-32h-832c-17.664 0-32 14.368-32 32v640c0 17.664 14.336 32 32 32h832c17.632 0 32-14.336 32-32v-640z" />
</font></defs></svg>

<?xml version="1.0" standalone="no"?>
<!DOCTYPE svg PUBLIC "-//W3C//DTD SVG 1.1//EN" "http://www.w3.org/Graphics/SVG/1.1/DTD/svg11.dtd" >
<svg xmlns="http://www.w3.org/2000/svg">
<metadata>
This is a custom SVG font generated by IcoMoon.
<iconset grid="32"></iconset>
</metadata>
<defs>
<font id="linecons" horiz-adv-x="1024" >
<font-face units-per-em="1024" ascent="960" descent="-64" />
<missing-glyph horiz-adv-x="1024" />
<glyph class="hidden" unicode="&#xf000;" d="M0,960L 1024 -64L0 -64 z" horiz-adv-x="0" />
<glyph unicode="&#xe000;" d="M 829.248,539.424C 815.264,685.44, 693.696,800, 544,800
	c-115.808,0-214.944-68.736-260.672-167.36C 269.568,636.992, 255.232,640, 240.032,640c-79.52,0-144-64.512-144-144c0-15.808, 3.168-30.752, 7.872-44.928
	c-61.856-36.064-103.872-102.24-103.872-179.008c0-114.88, 93.12-208, 208-208L 208.032,64 L 784,64 l0,0.064 c 132.576,0, 240,107.424, 240,240
	C 1024,421.056, 940.128,518.24, 829.248,539.424z M 784,128.064L 784,128 L 208.032,128 c-79.392,0.064-144,64.64-144,144.064c0,51.2, 26.976,97.44, 72.128,123.744
	c 43.872,25.184, 46.88,30.176, 28.48,75.424c-3.104,9.312-4.608,17.408-4.608,24.736c0,44.128, 35.872,80, 80,80c0,0, 20.992,1.504, 43.296-7.36
	c 36.704-14.624, 40.704-0.64, 58.048,37.088C 378.080,684.832, 457.6,736, 544,736c 115.2,0, 210.432-87.136, 221.568-202.688c 3.936-45.824, 3.936-45.824, 51.68-56.736
	C 900,460.768, 960,388.192, 960,304.064C 960,207.008, 881.056,128.064, 784,128.064z"  />
<glyph unicode="&#xe001;" d="M 1020.192,558.176c-8.864,25.568-31.616,44.288-59.008,48.352l-266.432,39.616l-115.808,240.448
	C 566.752,911.84, 540.672,928, 512,928c-28.672,0-54.752-16.16-66.944-41.408l-115.808-240.448l-266.464-39.616c-27.36-4.064-50.112-22.784-58.944-48.352
	c-8.8-25.632-2.144-53.856, 17.184-73.12l 195.264-194.944l-45.28-270.432C 166.4-7.552, 178.208-34.88, 201.344-50.816
	C 214.048-59.552, 228.992-64, 243.936-64c 12.288,0, 24.608,3.008, 35.776,8.992L 512,70.048l 232.32-125.056C 755.488-60.992, 767.808-64, 780.064-64
	c 14.944,0, 29.888,4.448, 42.624,13.184c 23.136,15.936, 34.88,43.264, 30.304,70.496l-45.312,270.432l 195.328,194.944
	C 1022.304,504.352, 1028.928,532.576, 1020.192,558.176z M 754.816,340.384c-16.384-16.32-23.808-39.328-20.064-61.888l 45.312-270.432l-232.32,124.992
	c-11.136,6.016-23.424,8.992-35.776,8.992c-12.288,0-24.608-3.008-35.744-8.992l-232.32-124.992l 45.312,270.432
	c 3.776,22.56-3.648,45.568-20.032,61.888l-195.264,194.944l 266.432,39.68c 24.352,3.616, 45.312,18.848, 55.776,40.576L 512,855.968l 115.84-240.416
	c 10.496-21.728, 31.424-36.928, 55.744-40.576l 266.496-39.68L 754.816,340.384z"  />
<glyph unicode="&#xe002;" d="M 995.52,53.248c-6.432,4.256-123.136,80.8-296.736,118.368c 63.68,80.672, 104.576,189.184, 121.952,261.408
	c 24.128,100.096, 14.752,295.936-81.376,417.984C 683.168,922.336, 604.544,960, 512,960c-92.544,0-171.168-37.696-227.328-108.992
	C 188.544,728.992, 179.2,533.152, 203.296,433.056c 17.376-72.224, 58.24-180.736, 121.952-261.408c-173.6-37.568-290.304-114.112-296.704-118.368
	c-23.456-15.616-33.952-44.8-25.76-71.744C 10.912-45.504, 35.84-64, 64-64l 896,0 c 28.192,0, 53.056,18.496, 61.248,45.504
	C 1029.472,8.448, 1018.976,37.632, 995.52,53.248z M 648.544,211.264l-10.432-13.248c-76.32-87.68-175.84-87.68-252.128,0l-10.464,13.248
	c-89.12,112.928-133.344,262.304-114.304,404.8C 278.656,752.992, 357.12,896, 512,896c 154.88,0, 233.376-143.040, 250.816-279.968
	C 781.792,473.472, 737.728,324.256, 648.544,211.264z M 64,0c 4.416,2.944, 112.832,74.048, 274.752,109.056l 79.488,17.184C 446.624,107.616, 477.76,96, 512,96
	c 34.272,0, 65.376,11.616, 93.76,30.24l 79.488-17.184c 160.64-34.752, 268.672-105.056, 274.752-109.056L 64,0 z"  />
<glyph unicode="&#xe003;" d="M 704.128,960c-176.736,0-320-143.296-320-320c0-41.12, 8.608-80.032, 22.816-116.128L 18.176,135.136
		C 6.944,123.872, 0,113.184, 0,96l0-96 c0-34.24, 29.728-64, 64-64l 96,0 c 17.152,0, 28,6.88, 39.232,18.048L 245.152,0l 74.976,0 c 35.328,0, 64,28.672, 64,64l0,64 l 64,0 
		c 35.328,0, 64,28.672, 64,64l0,75.008 l 75.808,75.872C 624.064,328.64, 662.944,320, 704.128,320c 176.672,0, 320,143.296, 320,320S 880.8,960, 704.128,960z M 704.128,384
		c-47.36,0-91.264,13.76-129.312,36.224l-11.008-10.976l-36-36l-60.96-60.992c-12-12-18.752-28.256-18.752-45.248L 448.096,192 l-64,0 
		c-35.328,0-64-28.64-64-64l0-64 L 245.152,64 c-16.96,0-33.248-6.752-45.248-18.752l-45.376-45.376L 64.096,0L 64,91.2l 373.28,372.608
		c0,0,0-0.032, 0.032-0.064l 47.008,47.008c-22.464,38.048-36.224,81.92-36.224,129.28c0,141.376, 114.656,256, 256,256s 256-114.624, 256-256S 845.504,384, 704.128,384zM 890.24,696.352c-35.872,49.984-79.552,93.6-129.76,129.728C 752.32,832, 741.76,833.472, 732.256,830.144
		c-44.448-15.648-74.88-46.048-90.432-90.496c-1.184-3.328-1.76-6.784-1.76-10.208c0-6.368, 1.984-12.672, 5.824-18.016
		c 36-50.048, 79.616-93.696, 129.696-129.696c 8.192-5.888, 18.688-7.392, 28.192-4.096c 44.512,15.552, 74.944,46.016, 90.56,90.496
		c 1.184,3.328, 1.76,6.784, 1.76,10.208C 896.064,684.704, 894.048,691.008, 890.24,696.352z M 794.24,607.68C 746.944,641.696, 705.76,682.88, 672,729.056
		c 12.384,35.296, 35.552,58.464, 69.824,71.072c 47.328-34.080, 88.448-75.168, 122.112-121.952C 851.424,643.136, 828.32,620.096, 794.24,607.68z"  />
<glyph unicode="&#xe004;" d="M 972.512,554.24l-98.048,19.648c-4.928,14.176-10.752,27.936-17.184,41.248l 55.552,83.328
		c 16.928,25.376, 13.568,59.2-8,80.736l-61.568,61.568c-12.384,12.384-28.736,18.752-45.312,18.752c-12.256,0-24.64-3.52-35.424-10.752
		l-83.328-55.52c-13.376,6.464-27.136,12.224-41.312,17.152L 618.24,908.48c-5.952,29.952-32.256,51.456-62.752,51.456l-87.040,0 
		c-30.496,0-56.768-21.536-62.752-51.456l-19.648-98.080c-14.176-4.928-27.936-10.72-41.248-17.152L 261.504,848.768
		C 250.656,856, 238.304,859.52, 226.016,859.52c-16.544,0-32.896-6.368-45.28-18.752L 119.2,779.2c-21.568-21.568-24.928-55.36-8-80.736l 55.52-83.328
		c-6.464-13.344-12.224-27.104-17.152-41.28L 51.456,554.24C 21.536,548.256,0,521.984,0,491.488l0-87.040 c0-30.496, 21.536-56.8, 51.456-62.752
		l 98.080-19.68c 4.928-14.176, 10.72-27.936, 17.152-41.248L 111.2,197.44c-16.928-25.376-13.568-59.2, 8-80.736l 61.568-61.568
		c 12.384-12.384, 28.736-18.752, 45.28-18.752c 12.288,0, 24.672,3.552, 35.456,10.752l 83.328,55.552c 13.344-6.496, 27.104-12.256, 41.28-17.184
		l 19.616-98.048c 5.984-29.952, 32.256-51.488, 62.752-51.488l 87.040,0 c 30.496,0, 56.8,21.568, 62.752,51.488l 19.68,98.048
		c 14.176,4.928, 27.936,10.752, 41.248,17.184l 83.328-55.552c 10.816-7.2, 23.2-10.752, 35.424-10.752c 16.576,0, 32.928,6.368, 45.312,18.752
		l 61.568,61.568c 21.568,21.568, 24.928,55.36, 8,80.736l-55.552,83.328c 6.496,13.376, 12.256,27.136, 17.184,41.312l 98.048,19.616
		C 1002.432,347.616, 1024,373.952, 1024,404.448l0,87.040 C 1024,521.984, 1002.432,548.256, 972.512,554.24z M 861.888,384.8
		c-22.24-4.448-40.448-20.32-47.872-41.76c-4.128-11.808-8.928-23.264-14.304-34.368c-9.952-20.448-8.256-44.576, 4.32-63.424l 55.552-83.328
		l-61.568-61.568l-83.328,55.552c-10.688,7.136-23.072,10.752-35.488,10.752c-9.504,0-19.072-2.112-27.872-6.368
		c-11.136-5.376-22.56-10.24-34.432-14.368c-21.376-7.424-37.248-25.632-41.696-47.872l-19.68-98.112l-87.040,0 l-19.616,98.112
		c-4.448,22.24-20.32,40.448-41.728,47.872c-11.808,4.128-23.296,8.928-34.4,14.304c-8.832,4.32-18.368,6.432-27.904,6.432
		c-12.448,0-24.8-3.616-35.488-10.752l-83.328-55.552l-61.568,61.568l 55.52,83.328c 12.576,18.88, 14.208,43.008, 4.384,63.36
		c-5.376,11.136-10.208,22.56-14.336,34.432c-7.424,21.376-25.664,37.248-47.872,41.696l-98.080,19.68L 64,491.488l 98.112,19.616
		c 22.208,4.448, 40.448,20.32, 47.872,41.728c 4.128,11.808, 8.896,23.296, 14.304,34.4c 9.92,20.416, 8.256,44.544-4.352,63.392L 164.448,733.952
		L 225.984,795.52l 83.328-55.52C 320,732.864, 332.384,729.248, 344.8,729.248c 9.504,0, 19.040,2.112, 27.872,6.368c 11.104,5.376, 22.56,10.208, 34.4,14.336
		c 21.408,7.424, 37.28,25.664, 41.728,47.872l 19.648,98.080l 87.040,0.032l 19.616-98.112c 4.448-22.208, 20.32-40.448, 41.76-47.872
		c 11.808-4.128, 23.264-8.896, 34.368-14.304c 8.864-4.288, 18.368-6.4, 27.936-6.4c 12.448,0, 24.8,3.616, 35.488,10.752l 83.328,55.52l 61.568-61.568
		l-55.552-83.328c-12.576-18.88-14.176-42.976-4.384-63.36c 5.376-11.104, 10.24-22.56, 14.368-34.4c 7.424-21.408, 25.632-37.28, 47.872-41.728
		l 98.048-19.648L 960,404.448L 861.888,384.8zM 512,671.968c-123.68,0-224-100.32-224-224c0-123.712, 100.32-224, 224-224s 224,100.32, 224,224C 736,571.648, 635.68,671.968, 512,671.968z
		 M 512,251.936c-108.224,0-196,87.808-196,196c0,108.224, 87.776,196, 196,196c 108.192,0, 196-87.776, 196-196
		C 708,339.744, 620.192,251.936, 512,251.936zM 512,575.968c-70.72,0-128-57.28-128-128c0-70.688, 57.28-128, 128-128c 70.688,0, 128,57.312, 128,128C 640,518.656, 582.688,575.968, 512,575.968z
		 M 512,351.936c-52.992,0-96,43.008-96,96c0,52.992, 43.008,96, 96,96s 96-43.008, 96-96C 608,394.944, 564.992,351.936, 512,351.936z"  />
<glyph unicode="&#xe005;" d="M 940.64,877.44C 888,930.016, 818.688,960, 750.368,960c-57.632,0-110.688-21.376-149.44-60.064l-155.744-156.928
	c-0.48-0.448-1.024-0.736-1.504-1.216c-0.256-0.256-0.416-0.608-0.672-0.832l 0.064-0.064L 112.544,407.808
	c-15.232-15.136-26.272-33.984-32.416-54.56l-75.168-272.256C 4.896,80.256,0,58.88,0,48C0-13.824, 50.208-64, 112.128-64
	c 12.32,0, 36.16,5.888, 37.024,6.016l 271.296,71.328c 20.608,6.112, 39.328,17.248, 54.56,32.512l 488.416,492.256
	C 1052.256,627.008, 1042.24,776, 940.64,877.44z M 512.448,198.56c-2.624,28.864-10.784,57.184-23.008,84.064l 302.56,302.528
	c 18.496-58.432, 8.992-119.552-31.552-160.128c-0.256-0.256-0.576-0.416-0.8-0.672l 0.448-0.416l-247.296-249.28
	C 512.8,182.624, 513.184,190.432, 512.448,198.56z M 473.376,311.808c-11.936,19.616-25.504,38.56-42.304,55.328
	c-19.552,19.552-41.984,34.88-65.408,47.744l 305.024,305.024c 23.936-10.624, 46.88-25.76, 67.136-46.016c 17.312-17.248, 30.688-36.576, 40.992-56.672
	L 473.376,311.808z M 335.552,430.016c-29.632,11.936-60.672,18.752-91.776,19.168l 246.496,248.384c 37.728,36.8, 92.672,47.392, 146.784,33.984
	L 335.552,430.016z M 133.344,4.064C 129.856,3.264, 119.008,0.512, 111.648,0C 85.344,0.32, 64,21.696, 64,48
	c 0.384,5.376, 2.528,14.624, 3.264,17.984l 33.696,122.048c 36.576,0.992, 75.936-13.248, 106.88-44.256c 31.424-31.36, 46.208-71.488, 44.608-108.512
	L 133.344,4.064z M 283.968,43.616c-0.768,42.944-18.24,87.616-53.504,122.816C 197.12,199.808, 153.472,219.072, 109.952,220.8l 31.872,115.424
	c 2.304,7.68, 6.88,15.264, 12.512,21.888c 64.192,45.952, 162.912,32.384, 231.488-36.256c 72.544-72.512, 83.744-178.752, 27.872-242.176
	c-3.712-1.952-7.456-3.808-11.488-4.992L 283.968,43.616z M 918.112,583.296l-53.888-54.304c0,7.232, 0.864,14.176, 0.192,21.568
	c-5.632,61.92-34.496,121.792-81.376,168.608c-52.128,52.16-121.248,82.080-189.696,82.272l 52.992,53.44C 672.864,881.344, 709.888,896, 750.368,896
	c 51.488,0, 104.384-23.296, 145.056-63.84c 38.176-38.112, 60.928-85.472, 64.192-133.376C 962.624,654.080, 947.872,613.088, 918.112,583.296z"  />
<glyph unicode="&#xe006;" d="M 1022.88,455.168c-0.32,1.344-0.128,2.784-0.64,4.096c-0.192,0.544-0.672,0.832-0.864,1.344
		c-0.32,0.768-0.256,1.632-0.672,2.368c-92.8,177.632-294.816,304.896-507.936,304.896c-213.152,0-415.136-127.072-508-304.672
		c-0.416-0.736-0.352-1.6-0.672-2.368c-0.224-0.512-0.672-0.8-0.864-1.344c-0.512-1.312-0.32-2.752-0.64-4.096
		c-0.576-2.4-1.12-4.704-1.12-7.168s 0.576-4.736, 1.12-7.168c 0.32-1.344, 0.128-2.784, 0.64-4.096
		c 0.192-0.544, 0.672-0.832, 0.864-1.344c 0.32-0.768, 0.256-1.632, 0.672-2.368c 92.832-177.632, 294.848-304.896, 508-304.896
		c 213.12,0, 415.136,127.072, 507.936,304.672c 0.448,0.736, 0.384,1.6, 0.672,2.368c 0.192,0.512, 0.672,0.8, 0.864,1.344
		c 0.512,1.312, 0.32,2.752, 0.64,4.096C 1023.424,443.264, 1024,445.568, 1024,448S 1023.424,452.768, 1022.88,455.168z M 512.736,192.384
		c-179.68,0-355.584,102.112-443.232,255.84c 88.128,153.92, 263.776,255.68, 443.232,255.68c 179.616,0, 355.552-102.144, 443.2-255.84
		C 867.808,294.112, 692.192,192.384, 512.736,192.384zM 512.736,576.032 C 521.568,576.032 528.672,568.896 528.672,560.032 C 528.672,551.232 521.536,544.064 512.736,544.064 L 512.736,544.032 C 459.808,544.032 416.768,500.992 416.768,448.128 C 416.768,439.296 409.6,432.128 400.8,432.128 C 391.968,432.128 384.8,439.296 384.8,448.128 C 384.8,518.688 441.984,575.872 512.544,576 C 512.608,576 512.672,576.032 512.736,576.032 ZM 512,672c-123.744,0-224-100.288-224-224c0-123.712, 100.288-224, 224-224c 123.68,0, 224,100.32, 224,224C 736,571.744, 635.68,672, 512,672z M 512,256
		c-105.888,0-192,86.112-192,192c0,105.888, 86.112,192, 192,192c 105.888,0, 192-86.112, 192-192C 704,342.112, 617.888,256, 512,256z"  />
<glyph unicode="&#xe007;" d="M 1021.568,369.44L 893.504,849.632C 885.76,876.928, 860.448,896, 832,896L 512,896 L 192,896 C 163.52,896, 138.24,876.928, 130.496,849.632L 2.432,369.44
		C 0.8,363.616,0,357.76,0,352l0-224 c0-70.688, 57.312-128, 128-128l 768,0 c 70.688,0, 128,57.312, 128,128l0,224 C 1024,357.76, 1023.2,363.616, 1021.568,369.44z M 960,128
		c0-35.264-28.736-64-64-64L 128,64 c-35.296,0-64,28.736-64,64l0,224 L 192.032,832.032l 639.904,0 L 960,352L 960,128 zM 759.744,768L 264.256,768 c-14.496,0-27.2-9.76-30.944-23.776l-110.24-384c-2.528-9.632-0.512-19.872, 5.568-27.744
		S 144.064,320, 153.984,320l 92.992,0 l 36.512,0 l 16.672,0 l 46.304-92.64C 357.344,205.696, 379.488,192, 403.744,192l 216.512,0 c 24.256,0, 46.368,13.696, 57.248,35.36
		L 723.808,320l 16.672,0 l 36.512,0 l 92.992,0 c 9.952,0, 19.328,4.64, 25.376,12.512s 8.064,18.112, 5.568,27.744l-110.24,384C 786.944,758.272, 774.24,768, 759.744,768z
		 M 776.992,384l-53.184,0 c-24.384,0-46.304-13.504-57.248-35.36L 620.256,256l-216.512,0 l-46.304,92.64C 346.496,370.496, 324.576,384, 300.192,384L 247.008,384 L 170.688,384 
		L 264.256,736l 495.488,0 l 93.568-352L 776.992,384 z"  />
<glyph unicode="&#xe008;" d="M 928,960L 224,960 C 170.976,960, 128,917.056, 128,864l0-64 L 96,800 C 42.976,800,0,757.056,0,704l0-640 
		c0-70.688, 57.312-128, 128-128l 768,0 c 70.688,0, 128,57.312, 128,128L 1024,864 C 1024,917.056, 980.992,960, 928,960z M 960,64c0-35.264-28.736-64-64-64L 128,0 c-35.296,0-64,28.736-64,64L 64,704 
		c0,17.664, 14.336,32, 32,32l 32,0 l0-640 c0-17.696, 14.304-32, 32-32s 32,14.304, 32,32L 192,864 c0,17.664, 14.336,32, 32,32l 704,0 c 17.632,0, 32-14.336, 32-32L 960,64 zM 623.936,543.84 C 615.136,543.84 607.936,551.008 607.936,559.84 C 607.936,568.672 615.136,575.84 623.936,575.84 L 879.936,575.84 C 888.8,575.84 895.936,568.672 895.936,559.84 C 895.936,551.008 888.8,543.84 879.936,543.84 L 623.936,543.84 ZM 623.936,639.84 C 615.136,639.84 607.936,647.008 607.936,655.84 C 607.936,664.672 615.136,671.84 623.936,671.84 L 879.936,671.84 C 888.8,671.84 895.936,664.672 895.936,655.84 C 895.936,647.008 888.8,639.84 879.936,639.84 L 623.936,639.84 ZM 623.936,735.84 C 615.136,735.84 607.936,743.008 607.936,751.84 C 607.936,760.672 615.136,767.84 623.936,767.84 L 879.936,767.84 C 888.8,767.84 895.936,760.672 895.936,751.84 C 895.936,743.008 888.8,735.84 879.936,735.84 L 623.936,735.84 ZM 528,95.872 C 536.832,95.872 544,88.672 544,79.872 C 544,71.008 536.8,63.872 528,63.872 L 272,63.872 C 263.168,63.872 256,71.008 256,79.872 C 256,88.672 263.168,95.872 272,95.872 L 528,95.872 ZM 528,191.872 C 536.832,191.872 544,184.672 544,175.872 C 544,167.008 536.8,159.872 528,159.872 L 272,159.872 C 263.168,159.872 256,167.008 256,175.872 C 256,184.672 263.168,191.872 272,191.872 L 528,191.872 ZM 528,287.872 C 536.832,287.872 544,280.672 544,271.872 C 544,263.008 536.8,255.872 528,255.872 L 272,255.872 C 263.168,255.872 256,263.008 256,271.872 C 256,280.672 263.168,287.872 272,287.872 L 528,287.872 ZM 880,95.872 C 888.8,95.872 896,88.672 896,79.872 C 896,71.008 888.8,63.872 880,63.872 L 624,63.872 C 615.136,63.872 608,71.008 608,79.872 C 608,88.672 615.136,95.872 624,95.872 L 880,95.872 ZM 880,191.872 C 888.8,191.872 896,184.672 896,175.872 C 896,167.008 888.8,159.872 880,159.872 L 624,159.872 C 615.136,159.872 608,167.008 608,175.872 C 608,184.672 615.136,191.872 624,191.872 L 880,191.872 ZM 880,287.872 C 888.8,287.872 896,280.672 896,271.872 C 896,263.008 888.8,255.872 880,255.872 L 624,255.872 C 615.136,255.872 608,263.008 608,271.872 C 608,280.672 615.136,287.872 624,287.872 L 880,287.872 ZM 880,479.872 C 888.8,479.872 896,472.704 896,463.872 C 896,455.040 888.8,447.872 880,447.872 L 272,447.872 C 263.168,447.872 256,455.040 256,463.872 C 256,472.704 263.168,479.872 272,479.872 L 880,479.872 ZM 880,383.872 C 888.8,383.872 896,376.672 896,367.872 C 896,359.008 888.8,351.872 880,351.872 L 272,351.872 C 263.168,351.872 256,359.008 256,367.872 C 256,376.672 263.168,383.872 272,383.872 L 880,383.872 ZM 288,544l 224,0 c 17.696,0, 32,14.304, 32,32L 544,799.872 c0,17.696-14.304,32-32,32L 288,831.872 
		c-17.696,0-32-14.304-32-32L 256,576 C 256,558.336, 270.304,544, 288,544z M 320,768l 160,0 l0-160 l-160,0 L 320,768 z"  />
<glyph unicode="&#xe009;" d="M 1004.8,601.6l-96,127.936c-3.744,5.024-8.192,9.376-12.8,13.536L 896,896 c0,35.328-28.672,64-64,64L 192,960 
	C 156.64,960, 128,931.328, 128,896l0-152.96 C 123.392,738.912, 118.944,734.592, 115.2,729.6l-95.968-127.968C 6.816,585.12,0,564.672,0,544l0-32 c0-52.928, 43.072-96, 96-96l0,0 l0-416 
	c0-35.328, 28.672-64, 64-64l 704,0 c 35.328,0, 64,28.672, 64,64L 928,416 l0,0c 52.928,0, 96,43.072, 96,96l0,32 C 1024,564.672, 1017.184,585.12, 1004.8,601.6z M 832,896l0-128 L 192,768 l0,0 L 192,896 L 832,896 z
	 M 326.176,480L 192.128,480 l 128,224l 70.048,0 L 326.176,480z M 423.488,704L 496,704 l0-224 l-136.512,0 L 423.488,704z M 528,704l 72.512,0 l 64-224L 528,480 L 528,704 z M 633.76,704l 70.048,0 l 128-224l-134.048,0 
	L 633.76,704z M 64,512l0,32 c0,6.944, 2.24,13.664, 6.4,19.2l 96,128C 172.448,699.264, 181.92,704, 192,704l 91.264,0 l-128-224L 96,480 C 78.336,480, 64,494.304, 64,512z M 640,0l-240,0 L 400,320 
	L 640,320 L 640,0 z M 864,0l-192,0 L 672,320 c0,17.696-14.368,32-32,32l-240,0 c-17.664,0-32-14.304-32-32l0-320 L 160,0 L 160,416 l 704,0 L 864,0 z M 960,512c0-17.696-14.304-32-32-32l-59.328,0 l-128,224L 832,704 l0,0
	c 10.048,0, 19.552-4.736, 25.568-12.8l 96-128C 957.76,557.664, 960,550.944, 960,544L 960,512 z"  />
<glyph unicode="&#xe00a;" d="M 661.824,840.576C 646.688,855.68, 626.624,864, 605.248,864s-41.44-8.32-56.64-23.456l-45.12-45.184
		C 488.352,780.256, 480,760.16, 480,738.752c0-15.072, 4.128-29.504, 11.872-42.016L 57.408,522.688c-29.056-12.768-49.888-38.976-55.744-70.048
		c-5.92-31.264, 4-63.328, 26.688-85.984l 407.040-402.56c 17.536-17.536, 40.832-27.488, 65.44-28.064C 501.408-64, 502.752-64, 503.328-64
		c 6.464,0, 13.024,0.672, 19.52,1.984c 31.808,6.592, 57.856,28.576, 69.664,58.496l 170.944,428.032c 12.864-8.48, 28-13.024, 43.744-13.024
		c 21.44,0, 41.504,8.352, 56.576,23.456L 908.8,480c 15.264,15.168, 23.616,35.296, 23.616,56.736s-8.384,41.6-23.424,56.576L 661.824,840.576z
		 M 533.088,20.256c-3.968-10.016-12.704-17.408-23.264-19.584c-2.432-0.512-4.896-0.704-7.328-0.672c-8.128,0.192-15.968,3.456-21.824,9.344
		L 73.376,412.16c-7.488,7.456-10.784,18.144-8.8,28.576c 1.952,10.368, 8.928,19.136, 18.624,23.36l 198.944,79.68
		c 134.048-44.576, 268.128-1.632, 402.24-144.704L 533.088,20.256z M 863.744,525.44l-45.248-45.216c-6.24-6.272-16.384-6.272-22.624,0l-56.576,56.544
		l-45.824-114.848l 3.808,9.696c-96.32,96.16-194.208,108.288-282.528,119.136c-28.384,3.488-55.904,7.136-82.944,12.96l 271.712,108.832l-54.88,54.88
		c-6.24,6.24-6.24,16.384,0,22.624l 45.248,45.28c 6.24,6.24, 16.384,6.24, 22.624,0l 247.2-247.264
		C 870.048,541.824, 870.048,531.68, 863.744,525.44zM 528,288c 44.096,0, 80,35.872, 80,80S 572.128,448, 528,448c-44.128,0-80-35.872-80-80S 483.904,288, 528,288z
		 M 528,416c 26.496,0, 48-21.504, 48-48S 554.496,320, 528,320c-26.528,0-48,21.504-48,48S 501.472,416, 528,416zM 944,960C 899.872,960, 864,924.128, 864,880S 899.872,800, 944,800S 1024,835.872, 1024,880S 988.128,960, 944,960z M 944,832
		C 917.504,832, 896,853.504, 896,880S 917.504,928, 944,928S 992,906.496, 992,880S 970.496,832, 944,832zM 256,416c0-35.296, 28.704-64, 64-64s 64,28.704, 64,64s-28.704,64-64,64S 256,451.296, 256,416z M 320,448c 17.664,0, 32-14.304, 32-32
		s-14.336-32-32-32s-32,14.304-32,32S 302.336,448, 320,448zM 384,224A32,32 900 1 0 448,224A32,32 900 1 0 384,224zM 896,704A32,32 900 1 0 960,704A32,32 900 1 0 896,704z"  />
<glyph unicode="&#x20;" horiz-adv-x="512" />
</font></defs></svg>
